X:1
T:D minor     Solomon Howe, 1804
T:Isaac Watts, 1709 Hymn 164, Book 2   86. 86. (C. M.)
T:Spiritual Babylon
T:Transcribed from The Farmer's Evening Entertainment, 1804.
%%score [ 1 2 3 4 ]
L:1/8
Q:1/4=120
M:2/2
K:F
V:1 treble nm="Tr." snm="Tr."
V:2 treble nm="C." snm="C."
V:3 treble-8 nm="T." snm="T."
V:4 bass nm="B." snm="B."
V:1
"^1. Why should this earth delight us so?  Why  should  we  fix  our     eyes                                            On these  low  grounds where  sor   –   rows    grow,   And \n2. While time his sharpest teeth prepares  Our  comforts  to    de –vour,                                           There   is   a    land      a    –    bove       the      stars,   And \n3. Nature  shall  be  dissolved  and  die,  The   sun   must   end   his  race,                                           The  earth  and  sea     for        ev      –    er      fly        Be –\n4. When will that glorious morning rise?  When  the  last trumpet sound,                                           And   call  the  na   –  tions      to           the    skies,    From" A4 | %1
 A2 d2 d2 c2 | d4 e4 | f8 | d4 A2 d2 | (c3 B) A4 | A8 |: z8 | z8 | c4 A2 A2 | A4 d4 | A4 A4 | %12
 A4 d4 | %13
"^1. eve      –     ry                   pleasure  dies?\n2. joys _____  a          –        bove his power.\n3. –fore ___  my                  Sa–vior's  face.\n4.  un     –     der        –     neath the ground?" (A B3) c4 | %14
 B4 A4 |1 A8 :|2 A8- | A4 |] %18
V:2
"^1. Why should this earth delight us so?   Why  should  we  fix   our   eyes                                                              On these low grounds where sorrows grow,  And \n2. While time his sharpest teeth prepares   Our   comforts   to    devour,                                                               There       is   a    land  a–bove   the  stars,  And \n3. Nature  shall  be  dissolved  and  die,   The   sun   must   end  his  race,                                                               The   earth   and  sea  for  ev  – er    fly      Be –\n4. When will that glorious morning rise?  When  the  last trumpet sound,                                                               And      call   the  na–tions  to  the skies,   From" D4 | %1
 F2 F2 F2 G2 | A4 A4 | A8 | F4 F2 A2 | (A3 G) F4 | E8 |: z8 | z8 | z8 | F4 E2 F2 | F2 DE E2 F2 | %12
 E4 F4 | %13
"^1. eve      –     ry                   pleasure  dies?\n2. joys _____  a          –        bove his power.\n3. –fore ___  my                  Sa–vior's  face.\n4.  un     –     der        –     neath the ground?" G4 A4 | %14
 G4 E4 |1 [DF]8 :|2 [DF]8- | [DF]4 |] %18
V:3
"^1. Why should this earth delight us so?   Why   should   we   fix  our  eyes                    On these low grounds where sorrows grow,  And     eve – ry   pleasure dies?  \n2. While time his sharpest teeth prepares    Our   comforts   to    devour,                       There  is  a  land  a  –   bove  the    stars,  And    joys   a–bove his power.\n3. Nature  shall  be  dissolved  and  die,   The   sun   must   end   his  race,                       The   earth   and   sea   for   ev  –  er  fly    Be – fore  my   Savior's  face.\n4. When will that glorious morning rise?  When  the  last  trumpet sound,                        And  call  the  na–tions  to   the skies,   From  underneath  the ground?" d4 | %1
 c2 B2 A2 G2 | A4 c4 | d8 | A4 d2 f2 | e4 d4 | ^c8 |: z8 | c4 A2 A2 | c4 c4 | d2 cB A4 | d4 e2 d2 | %12
 c3 B A4 | %13
"^1. And       eve  –  ry            plea–sure  dies?\n2. And       joys      a      –     bove  his  power.\n3. Be   –    fore     my           Sa – vior's  face.\n4. From     un  –   der  –   neath the ground?" d4 e2 fe | %14
 d4 ^c4 |1 d8 :|2 d8- | d4 |] %18
V:4
 D,4 | A,,2 B,,C, D,2 E,2 | D,4 A,,4 | D,8 | F,4 D,2 D,2 | A,,4 D,4 | A,,8 |: %7
"^1. On these low grounds where sorrows grow,  On these low grounds where sorrows grow,\n2.    There   is    a  land   a – bove  the   stars,  There  is  a   land   a – bove     the     stars,\n3.     The   earth   and   sea   for  ev  – er   fly,   The  earth  and  sea  for  ev   –   er     fly \n4.     And  call  the  na – tions   to   the   skies,   And   call   the   na – tions  to   the  skies," F,4 C,2 C,2 | %8
 C,4 D,4 | A,,2 A,,2 A,,4 | D,4 A,,2 D,2 | F,3 E, D,4 | A,,4 D,4 | %13
"^__________________________________________________\nEdited by B. C. Johnston, 2017\n   1. Measure 2, \nTenor\n: last note changed from G# to G (like \nCounter\n).\n   2. Measure 17 originally as a dotted whole-note in 3:2 time; \n        2:2 time retained.\n   3. These words substituted for the original words.""^1. And       eve  –  ry            plea–sure  dies?\n2. And       joys      a      –     bove  his  power.\n3. Be   –    fore     my           Sa – vior's  face.\n4. From     un  –   der  –   neath the ground?" (A, G,3) F,<E, (3D,E,F, | %14
 G,4 [A,,A,]4 |1 D,8 :|2 D,8- | D,4 |] %18

